X: 1755
T: Apples In Winter
R: jig
M: 6/8
K: Bdorian
|:fBB aBB|fec cBc|A2A cAc|efg a2a|
fBB aBB|fec cBc|Ace a2a|fec Bce:|
|:fbb baf|b2b baf|a2a aec|Ace aga|
fbb fbb|eaa eaa|fec a2a|fec Bce:|

